src/xmb/retrosystem/Handheld Electronic Game.svg

<svg xmlns="http://www.w3.org/2000/svg" xml:space="preserve" width="256" height="256" viewBox="0 0 341.333 341.333"><path d="M325.333 69.333H16V272h309.333V77.536Z" style="fill:#7b0000;fill-opacity:1;fill-rule:nonzero;stroke:none;stroke-width:1.33333325"/><path d="M0 0h-206.499c-2.623 0-4.75 2.117-4.75 4.729v126.542c0 2.612 2.127 4.729 4.75 4.729H0c2.624 0 4.751-2.117 4.751-4.729V4.729C4.751 2.117 2.624 0 0 0" style="fill:#d9d9d9;fill-opacity:1;fill-rule:nonzero;stroke:none" transform="matrix(1.33333 0 0 -1.33333 308.332 261.333)"/><path d="M0 0q-.306-.893-1.161-1.453a3.2 3.2 0 0 0-1.8-.541q-.935 0-1.716.473A3.1 3.1 0 0 0-5.876-.219q-.31.628-.31 1.297 0 1.25.916 2.142a3.15 3.15 0 0 0 2.282.927q.885 0 1.67-.443.836-.473 1.253-1.407h-.911a2.7 2.7 0 0 1-.456.545q-.647.552-1.553.552-.989 0-1.694-.689-.706-.69-.706-1.647 0-.621.327-1.167.327-.545.884-.85t1.196-.305q.895 0 1.546.562.475.406.658.91h-3.19l-.027.73H.195Q.108.311 0 0" style="fill:#191919;fill-opacity:1;fill-rule:nonzero;stroke:none" transform="matrix(1.33333 0 0 -1.33333 48.83 103.96)"/><path d="M0 0h1.486v2.142Zm-1.819-2.637h-.961l4.134 5.963h.944v-5.963h-.812v1.892H-.511z" style="fill:#191919;fill-opacity:1;fill-rule:nonzero;stroke:none" transform="matrix(1.33333 0 0 -1.33333 52.553 102.986)"/><path d="M0 0v5.963h1.089l2.03-4.713L5.16 5.963h1.087V0h-.812v4.695L3.44 0h-.648L.812 4.691V0Z" style="fill:#191919;fill-opacity:1;fill-rule:nonzero;stroke:none" transform="matrix(1.33333 0 0 -1.33333 56.94 106.502)"/><path d="M0 0v-.749h-2.593V-2.58h2.509v-.75h-2.509v-1.888H0v-.745h-3.405V0Z" style="fill:#191919;fill-opacity:1;fill-rule:nonzero;stroke:none" transform="matrix(1.33333 0 0 -1.33333 71.025 98.551)"/><path d="M0 0a.74.74 0 0 1-.481-.163.54.54 0 0 1-.21-.431q0-.321.576-.844.79.314.791.806a.6.6 0 0 1-.198.45A.7.7 0 0 1 0 0m-.308-4.612q.421 0 .739.31.23.223.479.7L-.366-2.376q-1.022-.432-1.022-1.177 0-.442.314-.751.313-.308.766-.308M1.929-3.42l1.489-1.436-.582-.555-1.294 1.253q-.674-1.2-1.835-1.2a1.83 1.83 0 0 0-1.335.543q-.55.543-.55 1.319 0 1.089 1.253 1.725-.567.571-.567 1.158 0 .802.755 1.192.356.182.743.182.402 0 .758-.199.357-.199.556-.539.198-.34.199-.692 0-.92-1.03-1.351l.86-.838.785 1.549h.917z" style="fill:#191919;fill-opacity:1;fill-rule:nonzero;stroke:none" transform="matrix(1.33333 0 0 -1.33333 55.275 108.925)"/><path d="M0 0q1.107 0 1.77-.405.804-.492.804-1.525 0-1.03-.817-1.54a2.2 2.2 0 0 0-.797-.299l1.661-2.164h-1.02L-.54-3.11q.914 0 1.082.011.532.034.853.318.378.329.378.844 0 .601-.478.934-.363.254-1.162.254h-.895v-5.214h-.828V0Z" style="fill:#191919;fill-opacity:1;fill-rule:nonzero;stroke:none" transform="matrix(1.33333 0 0 -1.33333 42.648 117.493)"/><path d="M0 0v-.749h-2.593V-2.58h2.509v-.75h-2.509v-1.888H0v-.745h-3.405V0Z" style="fill:#191919;fill-opacity:1;fill-rule:nonzero;stroke:none" transform="matrix(1.33333 0 0 -1.33333 51.437 117.493)"/><path d="M0 0v.749h3.47V0H2.145v-5.214h-.812V0Z" style="fill:#191919;fill-opacity:1;fill-rule:nonzero;stroke:none" transform="matrix(1.33333 0 0 -1.33333 51.84 118.492)"/><path d="M0 0q1.107 0 1.77-.405.804-.492.804-1.525 0-1.03-.817-1.54a2.2 2.2 0 0 0-.797-.299l1.661-2.164h-1.02L-.54-3.11q.914 0 1.082.011.532.034.853.318.378.329.378.844 0 .601-.478.934-.363.254-1.162.254h-.895v-5.214h-.828V0Z" style="fill:#191919;fill-opacity:1;fill-rule:nonzero;stroke:none" transform="matrix(1.33333 0 0 -1.33333 59.057 117.493)"/><path d="M0 0q0 .795-.467 1.396-.731.942-1.889.942a2.34 2.34 0 0 1-1.7-.703Q-4.715.984-4.715-.03l-.019-.038a2.15 2.15 0 0 1 .706-1.602 2.33 2.33 0 0 1 1.657-.657q.984 0 1.678.687Q0-.953 0 0m-5.496-.306-.031-.038q0 1.619.881 2.489.962.95 2.294.95 1.314 0 2.241-.897T.816.034q0-1.28-.9-2.145a3.15 3.15 0 0 0-2.268-.924q-1.314 0-2.244.916-.786.768-.9 1.813" style="fill:#191919;fill-opacity:1;fill-rule:nonzero;stroke:none" transform="matrix(1.33333 0 0 -1.33333 70.384 121.524)"/><path d="M38.205 127.139h35.591V96.86h-35.59Zm36.462.861H37.333V96h37.334z" style="fill:#191919;fill-opacity:1;fill-rule:nonzero;stroke:none;stroke-width:1.33333325"/><path d="M0 0h-122.348a4.83 4.83 0 0 0-4.826 4.835v98.33a4.83 4.83 0 0 0 4.826 4.835H0a4.83 4.83 0 0 0 4.826-4.835V4.835A4.83 4.83 0 0 0 0 0" style="fill:#ccc;fill-opacity:1;fill-rule:nonzero;stroke:none" transform="matrix(1.33333 0 0 -1.33333 252.232 234.667)"/><path d="M0 0h-104.326c-2.119 0-3.837-1.691-3.837-3.776v-68.448c0-2.085 1.718-3.776 3.837-3.776H0c2.119 0 3.837 1.691 3.837 3.776v68.448C3.837-1.691 2.119 0 0 0" style="fill:#7b0000;fill-opacity:1;fill-rule:nonzero;stroke:none" transform="matrix(1.33333 0 0 -1.33333 240.217 112)"/><path d="M240 208H101.333v-90.667H240z" style="fill:#91a08d;fill-opacity:1;fill-rule:nonzero;stroke:none;stroke-width:1.33333325"/><path d="M0 0a2 2 0 1 0-3.999-.001A2 2 0 0 0 0 0" style="fill:#191919;fill-opacity:1;fill-rule:nonzero;stroke:none" transform="matrix(1.33333 0 0 -1.33333 122.667 242.667)"/><path d="M0 0c-5.514 0-10-4.486-10-10s4.486-10 10-10 10 4.486 10 10S5.514 0 0 0" style="fill:#7b0000;fill-opacity:1;fill-rule:nonzero;stroke:none" transform="matrix(1.33333 0 0 -1.33333 50.667 202.667)"/><path d="M0 0a8 8 0 1 0-16 0A8 8 0 0 0 0 0" style="fill:red;fill-opacity:1;fill-rule:nonzero;stroke:none" transform="matrix(1.33333 0 0 -1.33333 61.333 216)"/><path d="M0 0c-5.514 0-10-4.486-10-10s4.486-10 10-10 10 4.486 10 10S5.514 0 0 0" style="fill:#7b0000;fill-opacity:1;fill-rule:nonzero;stroke:none" transform="matrix(1.33333 0 0 -1.33333 285.333 202.667)"/><path d="M0 0a8 8 0 1 0-16 0A8 8 0 0 0 0 0" style="fill:red;fill-opacity:1;fill-rule:nonzero;stroke:none" transform="matrix(1.33333 0 0 -1.33333 296 216)"/><path d="M0 0h-4.278c-3.232 0-5.861-2.692-5.861-6s2.629-6 5.861-6H0c3.232 0 5.861 2.692 5.861 6S3.232 0 0 0" style="fill:#7b0000;fill-opacity:1;fill-rule:nonzero;stroke:none" transform="matrix(1.33333 0 0 -1.33333 178.852 240)"/><path d="M0 0h-4.906c-1.959 0-3.547 1.697-3.547 3.79v.42C-8.453 6.303-6.865 8-4.906 8H0c1.959 0 3.547-1.697 3.547-3.79v-.42C3.547 1.697 1.959 0 0 0" style="fill:#8c8c8c;fill-opacity:1;fill-rule:nonzero;stroke:none" transform="matrix(1.33333 0 0 -1.33333 179.27 253.333)"/><path d="M0 0h-4.278c-3.232 0-5.861-2.692-5.861-6s2.629-6 5.861-6H0c3.232 0 5.861 2.692 5.861 6S3.232 0 0 0" style="fill:#7b0000;fill-opacity:1;fill-rule:nonzero;stroke:none" transform="matrix(1.33333 0 0 -1.33333 210.852 240)"/><path d="M0 0h-4.906c-1.959 0-3.547 1.697-3.547 3.79v.42C-8.453 6.303-6.865 8-4.906 8H0c1.959 0 3.547-1.697 3.547-3.79v-.42C3.547 1.697 1.959 0 0 0" style="fill:#8c8c8c;fill-opacity:1;fill-rule:nonzero;stroke:none" transform="matrix(1.33333 0 0 -1.33333 211.27 253.333)"/><path d="M0 0h-4.278c-3.232 0-5.861-2.692-5.861-6s2.629-6 5.861-6H0c3.232 0 5.861 2.692 5.861 6S3.232 0 0 0" style="fill:#7b0000;fill-opacity:1;fill-rule:nonzero;stroke:none" transform="matrix(1.33333 0 0 -1.33333 242.852 240)"/><path d="M0 0h-4.906c-1.959 0-3.547 1.697-3.547 3.79v.42C-8.453 6.303-6.865 8-4.906 8H0c1.959 0 3.547-1.697 3.547-3.79v-.42C3.547 1.697 1.959 0 0 0" style="fill:#8c8c8c;fill-opacity:1;fill-rule:nonzero;stroke:none" transform="matrix(1.33333 0 0 -1.33333 243.27 253.333)"/></svg>

<?xml version="1.0" encoding="UTF-8" standalone="no"?>
<svg
   xmlns:dc="http://purl.org/dc/elements/1.1/"
   xmlns:cc="http://creativecommons.org/ns#"
   xmlns:rdf="http://www.w3.org/1999/02/22-rdf-syntax-ns#"
   xmlns:svg="http://www.w3.org/2000/svg"
   xmlns="http://www.w3.org/2000/svg"
   xmlns:sodipodi="http://sodipodi.sourceforge.net/DTD/sodipodi-0.dtd"
   xmlns:inkscape="http://www.inkscape.org/namespaces/inkscape"
   viewBox="0 0 341.33334 341.33334"
   height="256"
   width="256"
   xml:space="preserve"
   id="svg2"
   version="1.1"
   sodipodi:docname="Handheld Electronic Game.svg"
   inkscape:version="0.92.2 (5c3e80d, 2017-08-06)"><sodipodi:namedview
     pagecolor="#ffffff"
     bordercolor="#666666"
     borderopacity="1"
     objecttolerance="10"
     gridtolerance="10"
     guidetolerance="10"
     inkscape:pageopacity="0"
     inkscape:pageshadow="2"
     inkscape:window-width="1024"
     inkscape:window-height="705"
     id="namedview74"
     showgrid="false"
     inkscape:pagecheckerboard="true"
     inkscape:zoom="0.69140623"
     inkscape:cx="170.66667"
     inkscape:cy="170.66667"
     inkscape:window-x="-8"
     inkscape:window-y="-8"
     inkscape:window-maximized="1"
     inkscape:current-layer="svg2" /><metadata
     id="metadata8"><rdf:RDF><cc:Work
         rdf:about=""><dc:format>image/svg+xml</dc:format><dc:type
           rdf:resource="http://purl.org/dc/dcmitype/StillImage" /><dc:title></dc:title></cc:Work></rdf:RDF></metadata><defs
     id="defs6"><clipPath
       id="clipPath18"
       clipPathUnits="userSpaceOnUse"><path
         id="path16"
         d="M 0,256 H 256 V 0 H 0 Z" /></clipPath><clipPath
       id="clipPath26"
       clipPathUnits="userSpaceOnUse"><path
         id="path24"
         d="M 4,212 H 252 V 44 H 4 Z" /></clipPath><clipPath
       id="clipPath46"
       clipPathUnits="userSpaceOnUse"><path
         id="path44"
         d="M 0,256 H 256 V 0 H 0 Z" /></clipPath></defs><path
     id="path38"
     style="fill:#7b0000;fill-opacity:1;fill-rule:nonzero;stroke:none;stroke-width:1.33333325"
     d="M 325.33333,69.333337 H 317.172 24.161338 16.000004 V 77.536003 263.79733 272 H 24.161338 317.172 325.33333 V 263.79733 77.536003 Z"
     inkscape:connector-curvature="0" /><g
     id="g48"
     transform="matrix(1.3333333,0,0,-1.3333333,308.33239,261.33333)"><path
       inkscape:connector-curvature="0"
       d="m 0,0 h -206.499 c -2.623,0 -4.75,2.117 -4.75,4.729 v 126.542 c 0,2.612 2.127,4.729 4.75,4.729 L 0,136 c 2.624,0 4.751,-2.117 4.751,-4.729 V 4.729 C 4.751,2.117 2.624,0 0,0"
       style="fill:#d9d9d9;fill-opacity:1;fill-rule:nonzero;stroke:none"
       id="path50" /></g><g
     id="g52"
     transform="matrix(1.3333333,0,0,-1.3333333,48.829732,103.95947)"><path
       inkscape:connector-curvature="0"
       d="m 0,0 c -0.204,-0.595 -0.591,-1.08 -1.161,-1.453 -0.551,-0.361 -1.151,-0.541 -1.8,-0.541 -0.623,0 -1.195,0.158 -1.716,0.473 -0.528,0.318 -0.928,0.752 -1.199,1.302 -0.206,0.418 -0.31,0.851 -0.31,1.297 0,0.833 0.305,1.547 0.916,2.142 0.633,0.618 1.394,0.927 2.282,0.927 0.59,0 1.147,-0.148 1.67,-0.443 0.557,-0.315 0.975,-0.784 1.253,-1.407 h -0.911 c -0.166,0.247 -0.318,0.428 -0.456,0.545 -0.431,0.368 -0.949,0.552 -1.553,0.552 -0.659,0 -1.224,-0.23 -1.694,-0.689 -0.471,-0.46 -0.706,-1.009 -0.706,-1.647 0,-0.414 0.109,-0.803 0.327,-1.167 0.218,-0.363 0.513,-0.647 0.884,-0.85 0.371,-0.203 0.77,-0.305 1.196,-0.305 0.597,0 1.112,0.187 1.546,0.562 0.316,0.27 0.536,0.574 0.658,0.91 h -3.19 l -0.027,0.73 H 0.195 C 0.137,0.52 0.072,0.207 0,0"
       style="fill:#191919;fill-opacity:1;fill-rule:nonzero;stroke:none"
       id="path54" /></g><g
     id="g56"
     transform="matrix(1.3333333,0,0,-1.3333333,52.553199,102.98574)"><path
       inkscape:connector-curvature="0"
       d="M 0,0 H 1.486 V 2.142 Z M -1.819,-2.637 H -2.78 L 1.354,3.326 H 2.298 V -2.637 H 1.486 v 1.892 h -1.997 z"
       style="fill:#191919;fill-opacity:1;fill-rule:nonzero;stroke:none"
       id="path58" /></g><g
     id="g60"
     transform="matrix(1.3333333,0,0,-1.3333333,56.939732,106.502)"><path
       inkscape:connector-curvature="0"
       d="M 0,0 V 5.963 H 1.089 L 3.119,1.25 5.16,5.963 H 6.247 V 0 H 5.435 V 4.695 L 3.44,0 H 2.792 L 0.812,4.691 V 0 Z"
       style="fill:#191919;fill-opacity:1;fill-rule:nonzero;stroke:none"
       id="path62" /></g><g
     id="g64"
     transform="matrix(1.3333333,0,0,-1.3333333,71.024932,98.551336)"><path
       inkscape:connector-curvature="0"
       d="M 0,0 V -0.749 H -2.593 V -2.58 h 2.509 V -3.33 H -2.593 V -5.218 H 0 V -5.963 H -3.405 V 0 Z"
       style="fill:#191919;fill-opacity:1;fill-rule:nonzero;stroke:none"
       id="path66" /></g><g
     id="g68"
     transform="matrix(1.3333333,0,0,-1.3333333,55.274799,108.9248)"><path
       inkscape:connector-curvature="0"
       d="m 0,0 c -0.186,0 -0.346,-0.054 -0.481,-0.163 -0.14,-0.116 -0.21,-0.26 -0.21,-0.431 0,-0.214 0.192,-0.496 0.576,-0.844 0.527,0.21 0.791,0.478 0.791,0.806 0,0.179 -0.066,0.329 -0.198,0.45 C 0.345,-0.061 0.186,0 0,0 m -0.308,-4.612 c 0.281,0 0.527,0.103 0.739,0.31 0.153,0.149 0.313,0.382 0.479,0.7 l -1.276,1.226 c -0.682,-0.288 -1.022,-0.68 -1.022,-1.177 0,-0.295 0.104,-0.545 0.314,-0.751 0.209,-0.205 0.464,-0.308 0.766,-0.308 M 1.929,-3.42 3.418,-4.856 2.836,-5.411 1.542,-4.158 c -0.45,-0.8 -1.061,-1.2 -1.835,-1.2 -0.523,0 -0.968,0.181 -1.335,0.543 -0.366,0.362 -0.55,0.802 -0.55,1.319 0,0.726 0.418,1.301 1.253,1.725 -0.378,0.381 -0.567,0.767 -0.567,1.158 0,0.535 0.252,0.932 0.755,1.192 C -0.5,0.7 -0.252,0.761 0.006,0.761 0.274,0.761 0.527,0.694 0.764,0.562 1.002,0.429 1.187,0.25 1.32,0.023 c 0.132,-0.227 0.199,-0.458 0.199,-0.692 0,-0.613 -0.344,-1.064 -1.03,-1.351 l 0.86,-0.838 0.785,1.549 h 0.917 z"
       style="fill:#191919;fill-opacity:1;fill-rule:nonzero;stroke:none"
       id="path70" /></g><g
     id="g72"
     transform="matrix(1.3333333,0,0,-1.3333333,42.647599,117.49267)"><path
       inkscape:connector-curvature="0"
       d="M 0,0 C 0.738,0 1.328,-0.135 1.77,-0.405 2.306,-0.733 2.574,-1.241 2.574,-1.93 2.574,-2.616 2.302,-3.13 1.757,-3.47 1.528,-3.617 1.262,-3.716 0.96,-3.769 L 2.621,-5.933 H 1.601 L -0.54,-3.11 c 0.609,0 0.97,0.004 1.082,0.011 0.354,0.023 0.639,0.129 0.853,0.318 0.252,0.219 0.378,0.501 0.378,0.844 0,0.401 -0.159,0.712 -0.478,0.934 -0.242,0.169 -0.629,0.254 -1.162,0.254 H -0.762 V -5.963 H -1.59 V 0 Z"
       style="fill:#191919;fill-opacity:1;fill-rule:nonzero;stroke:none"
       id="path74" /></g><g
     id="g76"
     transform="matrix(1.3333333,0,0,-1.3333333,51.436932,117.49267)"><path
       inkscape:connector-curvature="0"
       d="M 0,0 V -0.749 H -2.593 V -2.58 h 2.509 V -3.33 H -2.593 V -5.218 H 0 V -5.963 H -3.405 V 0 Z"
       style="fill:#191919;fill-opacity:1;fill-rule:nonzero;stroke:none"
       id="path78" /></g><g
     id="g80"
     transform="matrix(1.3333333,0,0,-1.3333333,51.840265,118.4916)"><path
       inkscape:connector-curvature="0"
       d="M 0,0 V 0.749 H 3.47 V 0 H 2.145 V -5.214 H 1.333 V 0 Z"
       style="fill:#191919;fill-opacity:1;fill-rule:nonzero;stroke:none"
       id="path82" /></g><g
     id="g84"
     transform="matrix(1.3333333,0,0,-1.3333333,59.056532,117.49267)"><path
       inkscape:connector-curvature="0"
       d="M 0,0 C 0.738,0 1.328,-0.135 1.77,-0.405 2.306,-0.733 2.574,-1.241 2.574,-1.93 2.574,-2.616 2.302,-3.13 1.757,-3.47 1.528,-3.617 1.262,-3.716 0.96,-3.769 L 2.621,-5.933 H 1.601 L -0.54,-3.11 c 0.609,0 0.97,0.004 1.082,0.011 0.354,0.023 0.639,0.129 0.853,0.318 0.252,0.219 0.378,0.501 0.378,0.844 0,0.401 -0.159,0.712 -0.478,0.934 -0.242,0.169 -0.629,0.254 -1.162,0.254 H -0.762 V -5.963 H -1.59 V 0 Z"
       style="fill:#191919;fill-opacity:1;fill-rule:nonzero;stroke:none"
       id="path86" /></g><g
     id="g88"
     transform="matrix(1.3333333,0,0,-1.3333333,70.383998,121.5236)"><path
       inkscape:connector-curvature="0"
       d="m 0,0 c 0,0.53 -0.156,0.995 -0.467,1.396 -0.488,0.628 -1.117,0.942 -1.889,0.942 -0.658,0 -1.225,-0.234 -1.7,-0.703 C -4.495,1.201 -4.715,0.646 -4.715,-0.03 l -0.019,-0.038 c 0.007,-0.631 0.243,-1.165 0.706,-1.602 0.464,-0.438 1.016,-0.657 1.657,-0.657 0.656,0 1.216,0.229 1.678,0.687 C -0.231,-1.182 0,-0.636 0,0 m -5.496,-0.306 -0.031,-0.038 c 0,1.079 0.294,1.909 0.881,2.489 0.641,0.633 1.406,0.95 2.294,0.95 0.876,0 1.623,-0.299 2.241,-0.897 C 0.507,1.6 0.816,0.879 0.816,0.034 c 0,-0.853 -0.3,-1.568 -0.9,-2.145 -0.636,-0.616 -1.392,-0.924 -2.268,-0.924 -0.876,0 -1.624,0.306 -2.244,0.916 -0.524,0.512 -0.824,1.116 -0.9,1.813"
       style="fill:#191919;fill-opacity:1;fill-rule:nonzero;stroke:none"
       id="path90" /></g><path
     inkscape:connector-curvature="0"
     d="M 38.205332,127.13867 H 73.795998 V 96.860003 H 38.205332 Z M 74.666665,128 H 37.333332 V 96.000003 h 37.333333 z"
     style="fill:#191919;fill-opacity:1;fill-rule:nonzero;stroke:none;stroke-width:1.33333325"
     id="path92" /><g
     id="g94"
     transform="matrix(1.3333333,0,0,-1.3333333,252.23173,234.66667)"><path
       inkscape:connector-curvature="0"
       d="m 0,0 h -122.348 c -2.665,0 -4.826,2.165 -4.826,4.835 v 98.33 c 0,2.67 2.161,4.835 4.826,4.835 L 0,108 c 2.665,0 4.826,-2.165 4.826,-4.835 V 4.835 C 4.826,2.165 2.665,0 0,0"
       style="fill:#cccccc;fill-opacity:1;fill-rule:nonzero;stroke:none"
       id="path96" /></g><g
     id="g98"
     transform="matrix(1.3333333,0,0,-1.3333333,240.21746,112)"><path
       inkscape:connector-curvature="0"
       d="m 0,0 h -104.326 c -2.119,0 -3.837,-1.691 -3.837,-3.776 v -68.448 c 0,-2.085 1.718,-3.776 3.837,-3.776 L 0,-76 c 2.119,0 3.837,1.691 3.837,3.776 V -3.776 C 3.837,-1.691 2.119,0 0,0"
       style="fill:#7b0000;fill-opacity:1;fill-rule:nonzero;stroke:none"
       id="path100" /></g><path
     inkscape:connector-curvature="0"
     d="M 239.99999,208 H 101.33333 v -90.66666 h 138.66666 z"
     style="fill:#91a08d;fill-opacity:1;fill-rule:nonzero;stroke:none;stroke-width:1.33333325"
     id="path102" /><g
     id="g104"
     transform="matrix(1.3333333,0,0,-1.3333333,122.66666,242.66667)"><path
       inkscape:connector-curvature="0"
       d="m 0,0 c 0,-1.105 -0.895,-2 -2,-2 -1.105,0 -2,0.895 -2,2 0,1.105 0.895,2 2,2 1.105,0 2,-0.895 2,-2"
       style="fill:#191919;fill-opacity:1;fill-rule:nonzero;stroke:none"
       id="path106" /></g><g
     id="g108"
     transform="matrix(1.3333333,0,0,-1.3333333,50.666665,202.66667)"><path
       inkscape:connector-curvature="0"
       d="m 0,0 c -5.514,0 -10,-4.486 -10,-10 0,-5.514 4.486,-10 10,-10 5.514,0 10,4.486 10,10 C 10,-4.486 5.514,0 0,0"
       style="fill:#7b0000;fill-opacity:1;fill-rule:nonzero;stroke:none"
       id="path110" /></g><g
     id="g112"
     transform="matrix(1.3333333,0,0,-1.3333333,61.333332,216)"><path
       inkscape:connector-curvature="0"
       d="m 0,0 c 0,-4.418 -3.582,-8 -8,-8 -4.418,0 -8,3.582 -8,8 0,4.418 3.582,8 8,8 4.418,0 8,-3.582 8,-8"
       style="fill:#ff0000;fill-opacity:1;fill-rule:nonzero;stroke:none"
       id="path114" /></g><g
     id="g116"
     transform="matrix(1.3333333,0,0,-1.3333333,285.33333,202.66667)"><path
       inkscape:connector-curvature="0"
       d="m 0,0 c -5.514,0 -10,-4.486 -10,-10 0,-5.514 4.486,-10 10,-10 5.514,0 10,4.486 10,10 C 10,-4.486 5.514,0 0,0"
       style="fill:#7b0000;fill-opacity:1;fill-rule:nonzero;stroke:none"
       id="path118" /></g><g
     id="g120"
     transform="matrix(1.3333333,0,0,-1.3333333,295.99999,216)"><path
       inkscape:connector-curvature="0"
       d="m 0,0 c 0,-4.418 -3.582,-8 -8,-8 -4.418,0 -8,3.582 -8,8 0,4.418 3.582,8 8,8 4.418,0 8,-3.582 8,-8"
       style="fill:#ff0000;fill-opacity:1;fill-rule:nonzero;stroke:none"
       id="path122" /></g><g
     id="g124"
     transform="matrix(1.3333333,0,0,-1.3333333,178.85186,240)"><path
       inkscape:connector-curvature="0"
       d="m 0,0 h -4.278 c -3.232,0 -5.861,-2.692 -5.861,-6 0,-3.308 2.629,-6 5.861,-6 H 0 c 3.232,0 5.861,2.692 5.861,6 0,3.308 -2.629,6 -5.861,6"
       style="fill:#7b0000;fill-opacity:1;fill-rule:nonzero;stroke:none"
       id="path126" /></g><g
     id="g128"
     transform="matrix(1.3333333,0,0,-1.3333333,179.27066,253.33333)"><path
       inkscape:connector-curvature="0"
       d="m 0,0 h -4.906 c -1.959,0 -3.547,1.697 -3.547,3.79 v 0.42 c 0,2.093 1.588,3.79 3.547,3.79 H 0 C 1.959,8 3.547,6.303 3.547,4.21 V 3.79 C 3.547,1.697 1.959,0 0,0"
       style="fill:#8c8c8c;fill-opacity:1;fill-rule:nonzero;stroke:none"
       id="path130" /></g><g
     id="g132"
     transform="matrix(1.3333333,0,0,-1.3333333,210.85186,240)"><path
       inkscape:connector-curvature="0"
       d="m 0,0 h -4.278 c -3.232,0 -5.861,-2.692 -5.861,-6 0,-3.308 2.629,-6 5.861,-6 H 0 c 3.232,0 5.861,2.692 5.861,6 0,3.308 -2.629,6 -5.861,6"
       style="fill:#7b0000;fill-opacity:1;fill-rule:nonzero;stroke:none"
       id="path134" /></g><g
     id="g136"
     transform="matrix(1.3333333,0,0,-1.3333333,211.27066,253.33333)"><path
       inkscape:connector-curvature="0"
       d="m 0,0 h -4.906 c -1.959,0 -3.547,1.697 -3.547,3.79 v 0.42 c 0,2.093 1.588,3.79 3.547,3.79 H 0 C 1.959,8 3.547,6.303 3.547,4.21 V 3.79 C 3.547,1.697 1.959,0 0,0"
       style="fill:#8c8c8c;fill-opacity:1;fill-rule:nonzero;stroke:none"
       id="path138" /></g><g
     id="g140"
     transform="matrix(1.3333333,0,0,-1.3333333,242.85186,240)"><path
       inkscape:connector-curvature="0"
       d="m 0,0 h -4.278 c -3.232,0 -5.861,-2.692 -5.861,-6 0,-3.308 2.629,-6 5.861,-6 H 0 c 3.232,0 5.861,2.692 5.861,6 0,3.308 -2.629,6 -5.861,6"
       style="fill:#7b0000;fill-opacity:1;fill-rule:nonzero;stroke:none"
       id="path142" /></g><g
     id="g144"
     transform="matrix(1.3333333,0,0,-1.3333333,243.27066,253.33333)"><path
       inkscape:connector-curvature="0"
       d="m 0,0 h -4.906 c -1.959,0 -3.547,1.697 -3.547,3.79 v 0.42 c 0,2.093 1.588,3.79 3.547,3.79 H 0 C 1.959,8 3.547,6.303 3.547,4.21 V 3.79 C 3.547,1.697 1.959,0 0,0"
       style="fill:#8c8c8c;fill-opacity:1;fill-rule:nonzero;stroke:none"
       id="path146" /></g></svg>
